static/images/mobile/copyright/wikipedia-wordmark-pwn.svg

<?xml version="1.0" encoding="UTF-8"?>
<svg width="120px" height="18px" viewBox="0 0 120 18" version="1.1" xmlns="http://www.w3.org/2000/svg" xmlns:xlink="http://www.w3.org/1999/xlink">
    <title>wikipedia-wordmark-pwn</title>
    <g id="Page-1" stroke="none" stroke-width="1" fill="none" fill-rule="evenodd">
        <path d="M88.8954075,6.27832681 C88.8954075,5.74777273 89.1871865,5.53556118 90.0095106,5.45599066 L90.5665586,5.40288991 C90.6726624,5.40288991 90.7257188,5.34978916 90.7257188,5.27026902 L90.7257188,4.68670488 L90.6991755,4.63360413 C90.6991755,4.63360413 88.6566586,4.68670488 87.9404373,4.68670488 C87.1181234,4.68670488 85.0225461,4.63360413 85.0225461,4.63360413 L84.9960259,4.68670488 L84.9960259,5.29679925 C84.9960259,5.37619847 85.0756065,5.40288991 85.1817093,5.40288991 L85.7122362,5.45599066 C86.5345522,5.53538988 86.8528645,5.69472236 86.8528645,6.27832681 L86.8528645,15.1115711 C86.8528645,15.6155647 86.5876025,16.0399777 85.7122362,16.1195482 L85.1817093,16.172649 C85.0756045,16.172649 84.9960259,16.2257497 84.9960259,16.3318203 L84.9960259,16.8888542 L85.0490763,16.9419549 C85.0490763,16.9419549 87.1181264,16.8888542 87.8608628,16.8888542 C88.6831778,16.8888542 90.6991785,16.9419549 90.6991785,16.9419549 L90.7257188,16.8888542 L90.7257188,16.3318203 C90.7257188,16.2257094 90.6461281,16.172649 90.5665515,16.172649 L90.0095136,16.1195482 C89.1606633,16.040149 88.8954004,15.6951453 88.8954004,15.1115711 L88.8954004,6.27832681 M67.4857483,6.27832681 C67.4857483,5.74777273 67.7775385,5.53556118 68.5998545,5.45599066 L69.1568985,5.40288991 C69.2630113,5.40288991 69.3160647,5.34978916 69.3160647,5.27026902 L69.3160647,4.68670488 L69.2895345,4.63360413 C69.2895345,4.63360413 67.2470106,4.68670488 66.5307913,4.68670488 C65.7084783,4.68670488 63.6129041,4.63360413 63.6129041,4.63360413 L63.5863638,4.68670488 L63.5863638,5.29679925 C63.5863638,5.37619847 63.6659545,5.40288991 63.7720481,5.40288991 L64.302574,5.45599066 C65.124889,5.53538988 65.4432053,5.69472236 65.4432053,6.27832681 L65.4432053,15.1115711 C65.4432053,15.6155647 65.1779444,16.0399777 64.302574,16.1195482 L63.7720481,16.172649 C63.6659404,16.172649 63.5863638,16.2257497 63.5863638,16.3318203 L63.5863638,16.8888542 L63.6394142,16.9419549 C63.6394142,16.9419549 65.7084622,16.8888542 66.4511966,16.8888542 C67.2735086,16.8888542 69.2895083,16.9419549 69.2895083,16.9419549 L69.3160647,16.8888542 L69.3160647,16.3318203 C69.3160647,16.2257094 69.236468,16.172649 69.1568823,16.172649 L68.5998293,16.1195482 C67.7509871,16.040149 67.4857221,15.6951453 67.4857221,15.1115711 L67.4857221,6.27832681 M111.647161,0.0902858292 C111.263032,0.0902858292 111.057934,0.347194714 110.777921,1.01135713 L105.107708,14.2955828 C104.39247,15.9304108 103.755372,16.1359017 102.630452,16.2125199 C102.501751,16.2125199 102.425133,16.2891986 102.425133,16.4159149 L102.425133,16.9014089 L102.476924,16.9531998 C102.476924,16.9531998 104.112518,16.9014089 104.777637,16.9014089 C105.390664,16.9014089 108.175934,16.9531998 108.175934,16.9531998 L108.225811,16.9014089 L108.225811,16.4159149 C108.225811,16.2891885 108.124576,16.2125199 108.022405,16.2125199 L107.281726,16.160729 C106.336603,16.0840503 106.003539,15.5195198 106.258987,14.8789454 L107.742241,11.1755359 C107.868977,10.8444573 108.021468,10.7418932 108.634535,10.7418932 L113.947834,10.7418932 L115.505974,15.0593066 C115.762379,15.7735571 115.402997,16.0831838 114.433298,16.1588146 L113.717567,16.208691 C113.587888,16.208691 113.537205,16.2853697 113.537205,16.4140005 L113.537205,16.8994844 L113.562295,16.9493608 C113.562295,16.9493608 116.066554,16.8994844 116.960582,16.8994844 C117.95679,16.8994844 119.923321,16.9493608 119.923321,16.9493608 L120,16.8994844 L120,16.4140005 C120,16.2853193 119.872498,16.208691 119.744784,16.208691 L119.462715,16.1838032 C118.440954,16.081622 117.931237,15.6996392 117.572651,14.7024434 L112.336071,0.857878833 C112.132706,0.347013345 112.003833,0.0902858292 111.647192,0.0902858292 L111.647161,0.0902858292 Z M111.010114,2.84961038 L111.061904,2.84961038 L113.53914,9.66921777 L113.53914,9.67123298 L109.093166,9.67123298 C108.531205,9.67123298 108.353948,9.59556189 108.456139,9.3392878 L111.010114,2.84961038 Z M97.2924265,15.2707423 C97.2924265,15.801246 96.9741042,16.0399777 96.1518083,16.1195482 L95.6212643,16.172649 C95.5151636,16.172649 95.4355931,16.2520482 95.4355931,16.3318203 L95.4355931,16.8888542 L95.4886938,16.9419549 C95.4886938,16.9419549 97.5577489,16.8888542 98.3004743,16.8888542 C99.1227802,16.8888542 101.138795,16.9419549 101.138795,16.9419549 L101.191896,16.8888542 L101.191896,16.3318203 C101.191896,16.252421 101.112497,16.172649 101.006204,16.172649 L100.44915,16.1195482 C99.6268544,16.040149 99.3350522,15.8542964 99.3350522,15.2707423 L99.3350522,11.5835653 L102.252933,6.43747792 C102.650826,5.72125259 102.783477,5.56210148 103.632303,5.45599066 L104.083267,5.40288991 C104.268938,5.37649068 104.268938,5.32349069 104.268938,5.27026902 L104.268938,4.68670488 L104.242438,4.63360413 C103.844525,4.66000337 102.624346,4.68670488 102.438635,4.68670488 C102.173383,4.68670488 100.687912,4.63360413 100.39612,4.63360413 L100.343019,4.66000337 L100.343019,5.27008766 C100.343019,5.32318841 100.369318,5.40270854 100.44912,5.40270854 L101.059235,5.45580929 C101.695869,5.50891004 101.695869,5.53520852 101.351027,6.1720044 L98.8840787,10.5488564 L98.830978,10.5488564 L96.1518285,6.1720044 C95.8865666,5.74760144 95.7804658,5.50885966 96.4171005,5.45580929 L97.0006646,5.40270854 C97.0800639,5.40270854 97.1332956,5.32330932 97.1332956,5.27008766 L97.1332956,4.66000337 L97.1068964,4.63360413 C96.7885941,4.66000337 94.5603779,4.68670488 94.4277469,4.68670488 C94.1359547,4.68670488 92.4913238,4.63360413 92.252579,4.63360413 L92.1995286,4.68670488 L92.1995286,5.27026902 C92.1995286,5.37636976 92.3321595,5.40288991 92.4117351,5.40288991 C93.1810078,5.48228913 93.6054208,5.64163169 93.9502734,6.19867568 L97.2925777,11.6896358 L97.2924265,15.2707423 Z M70.8303348,4.63415831 L70.8035225,4.68594918 L70.8035225,5.27119602 C70.8035225,5.35059524 70.8835867,5.40358516 70.9896562,5.40358516 L71.5729886,5.45537602 C72.448357,5.53477525 72.6341099,5.53497677 72.6341099,6.22482302 L72.6341099,14.978658 C72.6341099,15.800974 72.3687784,16.0407939 71.5729886,16.1203846 L70.9627875,16.1721754 C70.8566817,16.1721754 70.8035225,16.2516754 70.8035225,16.3314474 L70.8035225,16.887897 L70.8303348,16.941703 C70.8303348,16.941703 72.8456746,16.887897 73.6414624,16.887897 C74.4637794,16.887897 75.3935362,16.941703 77.5156377,16.941703 C80.4600551,16.941703 83.7480868,15.5624639 83.7480868,10.9203601 C83.7480868,7.39234427 81.5732634,4.63415831 77.1433742,4.63415831 C76.4537023,4.63415831 74.145463,4.68596933 73.6414624,4.68596933 C73.1639899,4.68596933 70.8303348,4.63415831 70.8303348,4.63415831 L70.8303348,4.63415831 Z M76.3739171,5.40359523 C80.8303336,5.40359523 81.4416169,8.612533 81.4416169,11.371253 C81.4416169,15.08493 79.796466,16.172246 76.8785748,16.172246 C74.8625781,16.172246 74.675734,15.7214538 74.675734,14.9786882 L74.675734,6.2248734 C74.675734,5.56172866 75.3393906,5.40359523 76.3739171,5.40359523 Z M52.3349517,4.64942352 L52.2831306,4.67610488 L52.2831306,5.28628993 C52.2831306,5.33939068 52.3100941,5.41868915 52.4692593,5.41868915 C53.7159954,5.49808837 54.0599925,5.52508209 54.0599925,6.34739809 L54.0599925,15.2605252 C54.0599925,15.7645188 53.7943155,16.0025352 52.9720005,16.108646 L52.4155328,16.1871383 C52.3094281,16.2135376 52.2562669,16.2403399 52.2562669,16.3464104 L52.2562669,16.9047945 L52.2831094,16.9565853 C52.2831094,16.9565853 54.2728278,16.9047945 55.0155642,16.9047945 C55.8378782,16.9047945 57.9590899,16.9565853 57.9590899,16.9565853 L57.9859426,16.9047945 L57.9859426,16.3464104 C57.9859426,16.2403096 57.9059287,16.2136585 57.7998139,16.1871383 L57.270217,16.1087467 C56.4213849,15.9761561 56.1016408,15.8442405 56.1016408,15.2606764 L56.1016408,11.7050622 C56.5791153,11.9172738 57.1098084,11.9698607 57.7729642,11.9698607 C61.5396987,11.9698607 62.3091457,9.47619101 62.3091457,7.88460938 C62.3091457,6.50523931 61.6202909,4.64942352 57.8535575,4.64942352 C56.8720843,4.64942352 55.8101116,4.70322959 55.0673752,4.70322959 C54.2981136,4.70322959 52.7328174,4.64942352 52.3349235,4.64942352 L52.3349517,4.64942352 Z M57.6943207,5.41895112 C59.1532653,5.41895112 60.1869173,5.92194722 60.1869173,8.20322396 C60.1869173,10.2457589 59.4182985,11.200464 57.8267209,11.200464 C57.296194,11.200464 56.6321949,11.1747701 56.101669,10.9625384 L56.101669,6.34768022 C56.101669,5.65800526 56.4210594,5.41895112 57.6943207,5.41895112 L57.6943207,5.41895112 Z M49.0415394,6.29991977 C49.0415394,5.76939592 49.3333295,5.55718437 50.1556445,5.47760377 L50.7126956,5.42450302 C50.8188013,5.42450302 50.8718527,5.37140227 50.8718527,5.29188214 L50.8718527,4.70829784 L50.8453124,4.65519709 C50.8453124,4.65519709 48.8027885,4.70829784 48.0865803,4.70829784 C47.2642654,4.70829784 45.1686871,4.65519709 45.1686871,4.65519709 L45.1421569,4.70829784 L45.1421569,5.31840228 C45.1421569,5.39780151 45.2217576,5.42450302 45.3278412,5.42450302 L45.8583671,5.47760377 C46.6806811,5.557003 46.9989974,5.71634555 46.9989974,6.29991977 L46.9989974,15.1331741 C46.9989974,15.6371778 46.7337334,16.0615908 45.8583671,16.1411815 L45.3278412,16.1942823 C45.2217354,16.1942823 45.1421569,16.247383 45.1421569,16.3534334 L45.1421569,16.9104975 L45.1952072,16.9635983 C45.1952072,16.9635983 47.2642593,16.9104975 48.0069947,16.9104975 C48.8293097,16.9104975 50.8453074,16.9635983 50.8453074,16.9635983 L50.8718527,16.9104975 L50.8718527,16.3534334 C50.8718527,16.2473326 50.7922671,16.1942823 50.7126804,16.1942823 L50.1556294,16.1411815 C49.3067872,16.0617823 49.0415243,15.7167483 49.0415243,15.1331741 L49.0415243,6.29991977 M35.4512226,11.2072855 C36.0348009,11.2072855 36.459222,11.3399165 36.8571159,11.8704403 L39.8015333,15.531067 C40.172901,15.9554901 40.1994282,16.2472823 40.1994282,16.5921147 L40.1994282,16.9104471 L40.2259584,16.9367456 C40.2259584,16.9367456 41.1809034,16.9104471 41.8440612,16.9104471 C42.5867976,16.9104471 43.9926899,16.9367456 43.9926899,16.9367456 L44.0722805,16.9104471 L44.0722805,16.353383 C44.0722805,16.2739838 43.9661758,16.220752 43.8865942,16.1942319 L43.7539642,16.1677319 C43.2234393,16.0616311 42.5868087,15.9024901 42.2684924,15.5311073 L38.2630232,10.7033221 C38.1303933,10.5441609 38.0242865,10.4115401 38.0242865,10.252389 C38.0242865,10.0401875 38.1834436,9.74837517 38.6343899,9.27091177 L40.9156515,6.64482274 C41.8705975,5.55722467 42.5868097,5.5041743 43.6213342,5.42459371 C43.7539642,5.42459371 43.8335458,5.37149296 43.8335458,5.29197282 L43.8335458,4.68186838 L43.7539551,4.65536839 C43.7539551,4.65536839 42.5867996,4.70846914 41.8971146,4.70846914 C41.127852,4.70846914 38.9792244,4.65536839 38.9792244,4.65536839 L38.9526941,4.68186838 L38.9526941,5.29197282 C38.9526941,5.37137205 39.0057445,5.39806349 39.1118533,5.42459371 C39.6423782,5.50399293 39.8811129,5.742906 39.8811129,5.95510748 C39.8811129,6.45912126 39.0587979,7.44057829 37.9977482,8.60775696 C36.8305907,9.85448599 36.326591,10.3054393 35.4512236,10.3054393 L35.4512236,6.29996008 C35.4512236,5.76943623 35.7430128,5.63680526 36.5653298,5.47764408 L36.8571169,5.42454333 C36.9632237,5.39804333 37.016275,5.37144258 37.016275,5.29192244 L37.016275,4.70833815 L36.9897448,4.6552374 C36.9897448,4.6552374 35.3185886,4.70833815 34.5758512,4.70833815 C33.7535362,4.70833815 31.5783814,4.6552374 31.5783814,4.6552374 L31.5518512,4.70833815 L31.5518512,5.31844259 C31.5518512,5.39784181 31.6314519,5.42454333 31.7375355,5.42454333 L32.2680604,5.47764408 C33.1169016,5.5570433 33.4086907,5.71637578 33.4086907,6.29996008 L33.4086907,15.1332144 C33.4086907,15.6372181 33.0638482,16.0616311 32.2680604,16.1412218 L31.7375355,16.1943226 C31.6314298,16.1943226 31.5518512,16.2474233 31.5518512,16.3534737 L31.5518512,16.9105378 L31.6049015,16.9636386 C31.6049015,16.9636386 33.7800584,16.9105378 34.5227948,16.9105378 C35.3185836,16.9105378 36.9897398,16.9636386 36.9897398,16.9636386 L37.01627,16.9105378 L37.01627,16.3534737 C37.01627,16.2473729 36.9366793,16.2208427 36.8571118,16.1943226 L36.5653247,16.1412218 C35.7960611,16.0085808 35.4512186,15.7167886 35.4512186,15.1332144 L35.4512186,11.2073258 M28.3372608,6.30486711 C28.3372608,5.77434326 28.6290499,5.56214178 29.4513659,5.48255111 L30.0084179,5.42945036 C30.1145217,5.42945036 30.1675751,5.37634961 30.1675751,5.29682948 L30.1675751,4.71324518 L30.1410449,4.66014443 C30.1410449,4.66014443 28.098522,4.71324518 27.3823118,4.71324518 C26.5599968,4.71324518 24.4644215,4.66014443 24.4644215,4.66014443 L24.4378812,4.71324518 L24.4378812,5.32334962 C24.4378812,5.40274885 24.517482,5.42945036 24.6235636,5.42945036 L25.1540894,5.48255111 C25.9764054,5.56195034 26.2947197,5.72129289 26.2947197,6.30486711 L26.2947197,15.1381214 C26.2947197,15.6421352 26.0294588,16.0665382 25.1540894,16.1461288 L24.6235636,16.1992296 C24.5174588,16.1992296 24.4378812,16.2523303 24.4378812,16.3583807 L24.4378812,16.9154449 L24.4909316,16.9685456 C24.4909316,16.9685456 26.5599827,16.9154449 27.3027201,16.9154449 C28.1250331,16.9154449 30.1410308,16.9685456 30.1410308,16.9685456 L30.1675751,16.9154449 L30.1675751,16.3583807 C30.1675751,16.25228 30.0879804,16.1992296 30.0084038,16.1992296 L29.4513518,16.1461288 C28.6025096,16.0667296 28.3372466,15.7217158 28.3372466,15.1381214 L28.3372466,6.30486711 M21.4183066,0.00263432563 L21.3473108,0.0525107416 L21.3473108,0.541833649 C21.3473108,0.59997242 21.374899,0.647480966 21.4259845,0.683835331 C21.4780676,0.722225058 21.5321105,0.743183228 21.5890925,0.743183228 L22.0534591,0.766257368 C22.6272132,0.790036831 22.7831782,0.903734908 23.0052129,1.09629818 C23.2262662,1.29377856 23.2538927,1.63014712 23.0819622,2.10370102 L18.1294053,13.8548567 L17.9394387,13.8030658 L14.7944032,7.37103344 C14.7971237,7.36498781 14.8673134,7.22134373 14.8673134,7.22134373 L17.4404609,2.41076845 C17.7401093,1.90281494 18.0289996,1.44956427 18.1753853,1.23828978 C18.4435945,0.852195945 18.5937931,0.779537594 19.3267245,0.745148057 C19.4760585,0.745148057 19.5512348,0.678243127 19.5512348,0.543677565 L19.5512348,0.0562691059 L19.4955949,0.00447824161 C19.4955949,0.00447824161 16.3488888,-0.00559780202 14.9479087,0.00447824161 L14.8768927,0.0543546576 L14.8768927,0.54175304 C14.8768927,0.60180626 14.9025665,0.649314806 14.9536419,0.685679247 C15.005725,0.724068974 15.0597648,0.743414977 15.1167469,0.743414977 L15.3412593,0.768504326 C15.91403,0.792283789 16.1779568,0.942850109 16.256553,1.03716188 C16.3931146,1.20416222 16.4609919,1.38383823 16.1299031,2.10596813 L14.1515324,6.05306678 L12.3612059,2.39185572 C11.7737,1.221755 11.6285899,0.86030716 12.512801,0.791528086 L12.8639481,0.74165167 C13.0339138,0.74165167 13.1172346,0.682102252 13.1172346,0.565109309 L13.1172346,0.0527727187 L12.9886714,0.0106548564 C12.9886714,0.0106548564 9.65903266,0.0106044761 8.1627553,0.0126700651 L8.09366387,0.0625464811 L8.09366387,0.576787444 C8.09366387,0.69173495 8.21295415,0.7209454 8.44481197,0.751415356 C9.27302346,0.860468376 9.25647759,0.946507713 10.0758856,2.5705342 C10.1986935,2.81418301 10.55944,3.54721518 10.55944,3.54721518 L12.4226667,7.21229545 C12.4226667,7.21229545 12.8264067,8.10091181 12.9676245,8.4134203 L10.2543787,13.8245782 L10.0989537,13.7841732 C10.0989537,13.7841732 5.89257128,4.91092708 4.67432924,1.94262539 C4.54759075,1.63512469 4.490118,1.40767815 4.490118,1.26718788 C4.490118,0.965581664 4.76135502,0.802400137 5.30563468,0.779799571 L5.94077306,0.752997295 C6.10876992,0.752997295 6.19405759,0.688107574 6.19405759,0.553431175 L6.19405759,0.0658111192 L6.13841767,0.0159347032 C6.13841767,0.0159347032 1.09704729,0.00988907705 0.055644951,0.0159347032 L0,0.0658111192 L0,0.578127558 C0,0.670625638 0.116342433,0.727202623 0.351149113,0.752745394 C0.990727192,0.787104703 1.41141562,0.889799739 1.61380031,1.05977252 C1.81520369,1.23168998 2.02739621,1.66656194 2.3103433,2.34343025 C3.84002376,6.01782078 7.09057357,12.5747155 8.67330944,16.3090484 C9.1291698,17.3288246 9.70282416,17.4858295 10.3984037,16.2765028 C11.1775972,14.8312052 12.5464419,12.0235559 13.6086725,9.82727059 C14.6035065,12.0204223 15.8781421,14.8155873 16.5809915,16.263152 C17.0967822,17.327152 17.6828169,17.4314894 18.2791656,16.2956976 C19.8373401,12.8315538 24.3926882,2.40868271 24.3926882,2.40868271 C24.5901625,1.89682977 24.8650924,1.5029673 25.2177932,1.21706964 C25.5695126,0.933126727 26.1120723,0.77361288 26.8449352,0.741178096 C26.9942692,0.741178096 27.0694446,0.674273166 27.0694446,0.541622052 L27.0694446,0.0523394489 L27.0138047,0.00246303289 L21.4184285,0.00246303289 L21.4183066,0.00263432563 Z" id="wikipedia-wordmark-pwn" fill="#000000" fill-rule="nonzero"></path>
    </g>
</svg>

<svg xmlns="http://www.w3.org/2000/svg" width="120" height="18"><path fill="#000" fill-rule="nonzero" d="M88.895 6.278c0-.53.292-.742 1.115-.822l.557-.053c.106 0 .159-.053.159-.133v-.583l-.027-.053s-2.042.053-2.759.053c-.822 0-2.917-.053-2.917-.053l-.027.053v.61c0 .08.08.106.186.106l.53.053c.823.08 1.14.239 1.14.822v8.834c0 .504-.264.928-1.14 1.008l-.53.053c-.106 0-.186.053-.186.159v.557l.053.053s2.07-.053 2.812-.053c.822 0 2.838.053 2.838.053l.027-.053v-.557c0-.106-.08-.16-.16-.16l-.556-.052c-.85-.08-1.115-.425-1.115-1.008V6.278m-21.41 0c0-.53.293-.742 1.115-.822l.557-.053c.106 0 .16-.053.16-.133v-.583l-.027-.053s-2.043.053-2.76.053c-.822 0-2.917-.053-2.917-.053l-.027.053v.61c0 .08.08.106.186.106l.53.053c.823.08 1.141.239 1.141.822v8.834c0 .504-.265.928-1.14 1.008l-.531.053c-.106 0-.186.053-.186.159v.557l.053.053s2.07-.053 2.812-.053c.823 0 2.839.053 2.839.053l.026-.053v-.557c0-.106-.08-.16-.16-.16l-.556-.052c-.849-.08-1.114-.425-1.114-1.008V6.278M111.647.09c-.384 0-.59.257-.87.921l-5.67 13.285c-.715 1.634-1.352 1.84-2.477 1.917-.128 0-.205.076-.205.203v.485l.052.052s1.636-.052 2.3-.052c.614 0 3.399.052 3.399.052l.05-.052v-.485a.2.2 0 0 0-.204-.203l-.74-.052c-.945-.077-1.278-.641-1.023-1.282l1.483-3.703c.127-.332.28-.434.893-.434h5.313l1.558 4.317c.256.715-.103 1.024-1.073 1.1l-.715.05c-.13 0-.18.076-.18.205v.485l.024.05s2.505-.05 3.399-.05c.996 0 2.962.05 2.962.05l.077-.05v-.485c0-.129-.128-.205-.255-.205l-.282-.025c-1.022-.102-1.532-.484-1.89-1.482L112.336.858c-.203-.511-.332-.768-.689-.768Zm-.637 2.76h.052l2.477 6.82v.001h-4.446c-.562 0-.74-.075-.637-.332l2.554-6.49ZM97.292 15.27c0 .531-.318.77-1.14.85l-.53.053c-.107 0-.186.079-.186.159v.557l.053.053s2.069-.053 2.811-.053c.823 0 2.839.053 2.839.053l.053-.053v-.557c0-.08-.08-.16-.186-.16l-.557-.052c-.822-.08-1.114-.266-1.114-.85v-3.686l2.918-5.147c.398-.716.53-.875 1.38-.981l.45-.053c.186-.027.186-.08.186-.133v-.583l-.027-.053a53.47 53.47 0 0 1-1.803.053c-.266 0-1.751-.053-2.043-.053l-.053.026v.61c0 .053.026.133.106.133l.61.053c.637.053.637.08.292.716l-2.467 4.377h-.053l-2.68-4.377c-.264-.424-.37-.663.266-.716l.584-.053c.08 0 .132-.08.132-.133v-.61l-.026-.026c-.318.026-2.547.053-2.68.053-.291 0-1.936-.053-2.174-.053l-.053.053v.583c0 .106.132.133.212.133.769.08 1.193.239 1.538.796l3.343 5.49v3.582ZM70.83 4.635l-.026.052v.585c0 .08.08.133.186.133l.583.051c.875.08 1.061.08 1.061.77v8.754c0 .822-.265 1.062-1.061 1.141l-.61.052c-.106 0-.16.08-.16.16v.556l.027.054s2.016-.054 2.811-.054c.823 0 1.753.054 3.875.054 2.944 0 6.232-1.38 6.232-6.022 0-3.528-2.175-6.286-6.605-6.286-.69 0-2.998.052-3.502.052-.477 0-2.81-.052-2.81-.052Zm5.544.77c4.456 0 5.068 3.209 5.068 5.967 0 3.714-1.646 4.801-4.563 4.801-2.016 0-2.203-.45-2.203-1.193V6.225c0-.663.663-.821 1.698-.821Zm-24.039-.755-.052.027v.61c0 .053.027.133.186.133 1.247.08 1.591.106 1.591.928v8.914c0 .504-.266.742-1.088.848l-.556.078c-.107.027-.16.053-.16.16v.558l.027.052s1.99-.052 2.733-.052c.822 0 2.943.052 2.943.052l.027-.052v-.559c0-.106-.08-.132-.186-.159l-.53-.078c-.849-.133-1.168-.265-1.168-.848v-3.556c.477.212 1.008.265 1.671.265 3.767 0 4.536-2.494 4.536-4.085 0-1.38-.689-3.236-4.455-3.236-.982 0-2.044.054-2.787.054-.769 0-2.334-.054-2.732-.054Zm5.36.77c1.458 0 2.492.503 2.492 2.784 0 2.043-.769 2.997-2.36 2.997-.53 0-1.195-.025-1.725-.237V6.348c0-.69.32-.929 1.592-.929Zm-8.653.88c0-.53.291-.742 1.114-.821l.557-.053c.106 0 .159-.054.159-.133v-.584l-.027-.053s-2.042.053-2.758.053c-.823 0-2.918-.053-2.918-.053l-.027.053v.61c0 .08.08.107.186.107l.53.053c.823.079 1.141.238 1.141.822v8.833c0 .504-.265.929-1.14 1.008l-.531.053c-.106 0-.186.053-.186.16v.556l.053.054s2.07-.054 2.812-.054c.822 0 2.838.054 2.838.054l.027-.054v-.557c0-.106-.08-.159-.16-.159l-.556-.053c-.85-.08-1.114-.424-1.114-1.008V6.3m-13.59 4.907c.583 0 1.007.133 1.405.663l2.945 3.661c.37.424.397.716.397 1.061v.318l.027.027s.955-.027 1.618-.027c.743 0 2.149.027 2.149.027l.08-.027v-.557c0-.079-.107-.132-.186-.159l-.133-.026c-.53-.106-1.167-.266-1.486-.637l-4.005-4.828c-.133-.159-.239-.291-.239-.45 0-.213.16-.505.61-.982l2.282-2.626c.955-1.088 1.67-1.14 2.705-1.22.133 0 .213-.054.213-.133v-.61l-.08-.027s-1.167.053-1.857.053c-.77 0-2.918-.053-2.918-.053l-.026.027v.61c0 .08.053.106.159.133.53.079.77.318.77.53 0 .504-.823 1.486-1.884 2.653-1.167 1.246-1.671 1.697-2.547 1.697V6.3c0-.53.292-.663 1.114-.822l.292-.053c.106-.027.16-.054.16-.133v-.584l-.027-.053s-1.671.053-2.414.053c-.822 0-2.998-.053-2.998-.053l-.026.053v.61c0 .08.08.107.186.107l.53.053c.849.079 1.14.238 1.14.822v8.833c0 .504-.344.929-1.14 1.008l-.53.053c-.107 0-.186.053-.186.16v.557l.053.053s2.175-.053 2.918-.053c.796 0 2.467.053 2.467.053l.026-.053v-.558c0-.106-.08-.132-.159-.159l-.292-.053c-.769-.132-1.114-.424-1.114-1.008v-3.926m-7.114-4.902c0-.53.292-.743 1.114-.822l.557-.054c.107 0 .16-.053.16-.132v-.584l-.027-.053s-2.042.053-2.759.053c-.822 0-2.918-.053-2.918-.053l-.026.053v.61c0 .08.08.106.186.106l.53.054c.822.079 1.14.238 1.14.822v8.833c0 .504-.265.929-1.14 1.008l-.53.053c-.107 0-.186.053-.186.16v.556l.053.054s2.069-.054 2.812-.054c.822 0 2.838.054 2.838.054l.027-.054v-.557c0-.106-.08-.159-.16-.159l-.557-.053c-.848-.08-1.114-.424-1.114-1.008V6.305M21.418.003l-.07.05v.489a.17.17 0 0 0 .078.142c.052.038.106.06.163.06l.464.022c.574.024.73.138.952.33.221.198.249.534.077 1.008l-4.953 11.75-.19-.05-3.145-6.433.073-.15 2.573-4.81c.3-.508.589-.961.735-1.173.269-.386.419-.458 1.152-.493.15 0 .224-.067.224-.201V.056l-.055-.052s-3.147-.01-4.548 0l-.071.05v.488c0 .06.026.107.077.144a.27.27 0 0 0 .163.057l.224.026c.573.023.837.174.916.268.136.167.204.347-.127 1.069l-1.978 3.947-1.79-3.661c-.588-1.17-.733-1.532.15-1.6l.352-.05c.17 0 .253-.06.253-.177V.053L12.99.01s-3.33 0-4.826.002l-.07.05v.514c0 .115.12.144.352.174.828.11.811.196 1.63 1.82.124.243.484.976.484.976l1.864 3.665.545 1.201-2.714 5.412-.155-.04S5.893 4.91 4.674 1.942c-.126-.308-.184-.535-.184-.676 0-.301.271-.465.816-.487L5.94.753c.168 0 .253-.065.253-.2V.066l-.056-.05S1.097.01.056.016L0 .066v.512c0 .093.116.15.351.175.64.034 1.06.137 1.263.307.201.172.413.607.696 1.283C3.84 6.018 7.09 12.575 8.673 16.31c.456 1.02 1.03 1.177 1.725-.032.78-1.446 2.148-4.253 3.21-6.45.996 2.193 2.27 4.989 2.973 6.436.516 1.064 1.102 1.168 1.698.033 1.558-3.464 6.114-13.887 6.114-13.887.197-.512.472-.906.825-1.192.352-.284.894-.443 1.627-.476.15 0 .224-.067.224-.2V.053l-.055-.05h-5.596Z"/></svg>
